;FLAVOR:Marlin
;TIME:4170
;Filament used: 7.04571m
;Layer height: 0.24
;MINX:125.565
;MINY:102.196
;MINZ:0.25
;MAXX:183.63
;MAXY:204.494
;MAXZ:46.09
;Generated with Cura_SteamEngine 5.3.1
M140 S60
M105
M190 S60
M104 S210
M105
M109 S210
M82 ;absolute extrusion mode
;ELEGOO NEPTUNE 3 Plus
M220 S100 ;Set the feed speed to 100%
M221 S100 ;Set the flow rate to 100%
G90
G28 ;home
;M420 S1 Z10;Uncomment to enable progressive compensation height of 10mm
G92 E0 ;Reset Extruder
G1 Z0.45 F300
G1 X1.5 Y20 F5000.0 ;Move to start position
G1 Y120.0 F600.0 E15 ;Draw the first line
G1 X0.5 F1000.0 ;Move to side a little
G1 Y20 F600 E30 ;Draw the second line
G92 E0 ;Reset Extruder
G92 E0
G92 E0
G1 F2700 E-1
;LAYER_COUNT:192
;LAYER:0
M107
M204 S500
G0 F6000 X126.3 Y103.679 Z0.25
;TYPE:SKIRT
G1 F2700 E0
G1 F4500 X126.797 Y103.106 E0.04305
G1 X127.667 Y102.563 E0.10125
G1 X128.062 Y102.399 E0.12552
G1 X128.97 Y102.196 E0.17832
G1 X151.283 Y102.2 E1.44458
G1 X152.111 Y102.306 E1.49196
G1 X152.873 Y102.613 E1.53858
G1 X153.38 Y102.931 E1.57254
G1 X153.953 Y103.428 E1.61559
G1 X154.496 Y104.298 E1.67379
G1 X154.66 Y104.693 E1.69806
G1 X154.863 Y105.601 E1.75086
G1 X154.863 Y149.518 E4.24315
G1 X155.847 Y148.161 E4.33828
G1 X156.854 Y147.038 E4.42388
G1 X158.067 Y145.937 E4.51684
G1 X159.852 Y144.671 E4.64104
G1 X161.386 Y143.845 E4.73991
G1 X162.735 Y143.293 E4.82263
G1 X164.334 Y142.821 E4.91724
G1 X166.285 Y142.484 E5.0296
G1 X168.195 Y142.391 E5.13812
G1 X169.58 Y142.47 E5.21685
G1 X171.628 Y142.816 E5.33472
G1 X173.001 Y143.211 E5.4158
G1 X174.925 Y144.008 E5.53398
G1 X176.193 Y144.711 E5.61626
G1 X177.824 Y145.865 E5.72964
G1 X179.024 Y146.941 E5.82111
G1 X180.086 Y148.114 E5.91091
G1 X181.342 Y149.882 E6.03398
G1 X182.014 Y151.1 E6.11293
G1 X182.81 Y153.019 E6.23083
G1 X183.205 Y154.392 E6.31191
G1 X183.551 Y156.46 E6.4309
G1 X183.63 Y158.239 E6.53196
G1 X183.551 Y159.623 E6.61063
G1 X183.219 Y161.609 E6.7249
G1 X182.77 Y163.16 E6.81653
G1 X182.091 Y164.802 E6.91737
G1 X181.218 Y166.38 E7.01971
G1 X180.085 Y167.958 E7.12995
G1 X179.117 Y169.032 E7.212
G1 X177.615 Y170.369 E7.32612
G1 X176.45 Y171.194 E7.40713
G1 X174.933 Y172.051 E7.50601
G1 X173 Y172.854 E7.6248
G1 X171.515 Y173.276 E7.71241
G1 X169.953 Y173.553 E7.80244
G1 X168.033 Y173.675 E7.91162
G1 X166.4 Y173.595 E8.0044
G1 X164.349 Y173.25 E8.12243
G1 X162.975 Y172.854 E8.20358
G1 X161.043 Y172.051 E8.32231
G1 X159.526 Y171.194 E8.42119
G1 X158.361 Y170.369 E8.5022
G1 X156.782 Y168.95 E8.62268
G1 X155.885 Y167.947 E8.69904
G1 X154.863 Y166.511 E8.79907
G1 X154.859 Y200.914 E10.75144
G1 X154.755 Y201.733 E10.79829
G1 X154.444 Y202.511 E10.84584
G1 X154.162 Y202.979 E10.87685
G1 X153.595 Y203.589 E10.92411
G1 X152.985 Y204.041 E10.9672
G1 X152.689 Y204.177 E10.98568
G1 X151.611 Y204.494 E11.04945
G1 X129.214 Y204.494 E12.32048
G1 X128.319 Y204.385 E12.37165
G1 X127.555 Y204.077 E12.4184
G1 X127.048 Y203.759 E12.45236
G1 X126.475 Y203.262 E12.4954
G1 X125.932 Y202.392 E12.5536
G1 X125.768 Y201.997 E12.57788
G1 X125.565 Y201.089 E12.63068
G1 X125.575 Y105.698 E18.04413
G1 X125.678 Y104.943 E18.08737
G1 X125.982 Y104.186 E18.13366
G1 X126.3 Y103.679 E18.16763
G0 F6000 X126.742 Y104.002
G1 F4500 X127.155 Y103.526 E18.20339
G1 X127.89 Y103.062 E18.25272
G1 X128.181 Y102.932 E18.27081
G1 X129.031 Y102.742 E18.32023
G1 X151.214 Y102.742 E19.57912
G1 X151.971 Y102.839 E19.62243
G1 X152.625 Y103.102 E19.66244
G1 X153.057 Y103.373 E19.69138
G1 X153.533 Y103.786 E19.72714
G1 X153.997 Y104.521 E19.77647
G1 X154.127 Y104.812 E19.79456
G1 X154.317 Y105.662 E19.84398
G1 X154.317 Y151.602 E22.45108
G1 X155.303 Y149.842 E22.56557
G1 X156.254 Y148.526 E22.65771
G1 X157.261 Y147.403 E22.74331
G1 X158.433 Y146.342 E22.83303
G1 X160.112 Y145.151 E22.94985
G1 X161.594 Y144.35 E23.04545
G1 X162.89 Y143.817 E23.12498
G1 X164.489 Y143.345 E23.21959
G1 X166.377 Y143.022 E23.32829
G1 X168.164 Y142.936 E23.42982
G1 X169.549 Y143.015 E23.50855
G1 X171.477 Y143.341 E23.61952
G1 X172.85 Y143.736 E23.7006
G1 X174.66 Y144.486 E23.81178
G1 X175.928 Y145.189 E23.89406
G1 X177.459 Y146.272 E24.00049
G1 X178.659 Y147.348 E24.09195
G1 X179.681 Y148.48 E24.1785
G1 X180.864 Y150.146 E24.29446
G1 X181.536 Y151.364 E24.3734
G1 X182.285 Y153.17 E24.48436
G1 X182.68 Y154.543 E24.56544
G1 X183.006 Y156.485 E24.67719
G1 X183.085 Y158.208 E24.77507
G1 X183.006 Y159.592 E24.85374
G1 X182.681 Y161.518 E24.96459
G1 X182.265 Y162.951 E25.04927
G1 X181.586 Y164.593 E25.1501
G1 X180.774 Y166.062 E25.24536
G1 X179.679 Y167.592 E25.35213
G1 X178.711 Y168.666 E25.43418
G1 X177.299 Y169.923 E25.54147
G1 X176.134 Y170.748 E25.62248
G1 X174.665 Y171.575 E25.71815
G1 X172.85 Y172.329 E25.82968
G1 X171.42 Y172.738 E25.91409
G1 X169.858 Y173.015 E26.00412
G1 X167.999 Y173.13 E26.10982
G1 X166.428 Y173.05 E26.19909
G1 X164.5 Y172.725 E26.31005
G1 X163.126 Y172.329 E26.39119
G1 X161.311 Y171.575 E26.50273
G1 X159.842 Y170.748 E26.5984
G1 X158.677 Y169.923 E26.67941
G1 X157.189 Y168.586 E26.79294
G1 X156.292 Y167.583 E26.8693
G1 X155.112 Y165.919 E26.98506
G1 X154.44 Y164.701 E27.06401
G1 X154.317 Y164.412 E27.08183
G1 X154.317 Y200.845 E29.14941
G1 X154.221 Y201.597 E29.19243
G1 X153.937 Y202.309 E29.23593
G1 X153.762 Y202.607 E29.25555
G1 X153.227 Y203.183 E29.30016
G1 X152.706 Y203.568 E29.33692
G1 X152.535 Y203.653 E29.34776
G1 X151.532 Y203.948 E29.40709
G1 X129.214 Y203.948 E30.67364
G1 X128.457 Y203.851 E30.71695
G1 X127.803 Y203.588 E30.75695
G1 X127.371 Y203.317 E30.78589
G1 X126.895 Y202.904 E30.82166
G1 X126.431 Y202.169 E30.87099
G1 X126.301 Y201.878 E30.88907
G1 X126.111 Y201.028 E30.9385
G1 X126.116 Y105.771 E36.34435
G1 X126.209 Y105.086 E36.38358
G1 X126.471 Y104.434 E36.42345
G1 X126.742 Y104.002 E36.45239
G0 F6000 X127.184 Y104.325
G1 F4500 X127.514 Y103.945 E36.48096
G1 X128.181 Y103.524 E36.52572
G1 X128.353 Y103.453 E36.53628
G1 X129.092 Y103.288 E36.57925
G1 X151.214 Y103.288 E37.83467
G1 X151.832 Y103.372 E37.87007
G1 X152.375 Y103.59 E37.90327
G1 X152.734 Y103.815 E37.92732
G1 X153.114 Y104.145 E37.95588
G1 X153.535 Y104.812 E38.00064
G1 X153.606 Y104.984 E38.0112
G1 X153.771 Y105.723 E38.05417
G1 X153.771 Y154.868 E40.84316
G1 X154.216 Y153.323 E40.9344
G1 X154.896 Y151.679 E41.03536
G1 X155.746 Y150.161 E41.1341
G1 X156.661 Y148.891 E41.22293
G1 X157.668 Y147.768 E41.30853
G1 X158.799 Y146.747 E41.39499
G1 X160.372 Y145.631 E41.50445
G1 X161.803 Y144.855 E41.59683
G1 X163.045 Y144.341 E41.67311
G1 X164.644 Y143.869 E41.76772
G1 X166.468 Y143.56 E41.87271
G1 X168.133 Y143.481 E41.96731
G1 X169.518 Y143.56 E42.04603
G1 X171.326 Y143.866 E42.1501
G1 X172.699 Y144.261 E42.23117
G1 X174.395 Y144.964 E42.33536
G1 X175.663 Y145.667 E42.41764
G1 X177.094 Y146.679 E42.51711
G1 X178.294 Y147.755 E42.60857
G1 X179.275 Y148.845 E42.6918
G1 X180.386 Y150.41 E42.80071
G1 X181.058 Y151.628 E42.87966
G1 X181.76 Y153.321 E42.98367
G1 X182.155 Y154.694 E43.06475
G1 X182.461 Y156.511 E43.16931
G1 X182.54 Y158.177 E43.26396
G1 X182.461 Y159.561 E43.34263
G1 X182.156 Y161.367 E43.44658
G1 X181.76 Y162.742 E43.52778
G1 X181.081 Y164.384 E43.62862
G1 X180.329 Y165.745 E43.71686
G1 X179.273 Y167.226 E43.82008
G1 X178.305 Y168.3 E43.90214
G1 X176.983 Y169.477 E44.00259
G1 X175.818 Y170.302 E44.0836
G1 X174.398 Y171.099 E44.17601
G1 X172.699 Y171.804 E44.2804
G1 X171.325 Y172.2 E44.36155
G1 X169.763 Y172.477 E44.45157
G1 X167.966 Y172.585 E44.55374
G1 X166.457 Y172.505 E44.63949
G1 X164.651 Y172.2 E44.74344
G1 X163.277 Y171.804 E44.82458
G1 X161.578 Y171.099 E44.92897
G1 X160.158 Y170.302 E45.02138
G1 X158.993 Y169.477 E45.1024
G1 X157.596 Y168.222 E45.20897
G1 X156.699 Y167.219 E45.28533
G1 X155.59 Y165.655 E45.39414
G1 X154.918 Y164.437 E45.47308
G1 X154.215 Y162.742 E45.57722
G1 X153.771 Y161.196 E45.6685
G1 X153.771 Y200.845 E47.91859
G1 X153.688 Y201.46 E47.9538
G1 X153.43 Y202.107 E47.99333
G1 X153.323 Y202.277 E48.00473
G1 X152.861 Y202.774 E48.04324
G1 X152.381 Y203.129 E48.07712
G1 X151.453 Y203.402 E48.13202
G1 X129.214 Y203.402 E49.39408
G1 X128.596 Y203.318 E49.42948
G1 X128.053 Y203.1 E49.46268
G1 X127.694 Y202.875 E49.48673
G1 X127.314 Y202.545 E49.51529
G1 X126.893 Y201.878 E49.56005
G1 X126.822 Y201.706 E49.57061
G1 X126.657 Y200.967 E49.61358
G1 X126.657 Y105.845 E55.01176
G1 X126.741 Y105.227 E55.04716
G1 X126.959 Y104.684 E55.08036
G1 X127.184 Y104.325 E55.10441
G0 F6000 X127.647 Y104.615
G1 F4500 X127.873 Y104.364 E55.12358
G1 X128.472 Y103.986 E55.16377
G1 X129.153 Y103.834 E55.20337
G1 X151.214 Y103.834 E56.45533
G1 X151.689 Y103.903 E56.48257
G1 X152.085 Y104.053 E56.5066
G1 X152.444 Y104.278 E56.53065
G1 X152.695 Y104.504 E56.54982
G1 X153.073 Y105.103 E56.59001
G1 X153.225 Y105.784 E56.62961
G1 X153.225 Y200.845 E62.02433
G1 X153.156 Y201.32 E62.05157
G1 X152.923 Y201.905 E62.08731
G1 X152.461 Y202.402 E62.12581
G1 X152.134 Y202.632 E62.1485
G1 X151.374 Y202.856 E62.19347
G1 X129.214 Y202.856 E63.45105
G1 X128.739 Y202.787 E63.47829
G1 X128.343 Y202.637 E63.50232
G1 X127.984 Y202.412 E63.52636
G1 X127.733 Y202.186 E63.54553
G1 X127.355 Y201.587 E63.58573
G1 X127.203 Y200.906 E63.62532
G1 X127.203 Y105.845 E69.02005
G1 X127.272 Y105.37 E69.04729
G1 X127.422 Y104.974 E69.07132
G1 X127.647 Y104.615 E69.09536
G0 F6000 X128.11 Y104.905
G1 F4500 X128.266 Y104.743 E69.10812
G1 X128.682 Y104.499 E69.13549
G1 X129.214 Y104.38 E69.16643
G1 X151.214 Y104.38 E70.41493
G1 X151.603 Y104.442 E70.43729
G1 X151.795 Y104.516 E70.44896
G1 X152.154 Y104.741 E70.47301
G1 X152.316 Y104.897 E70.48577
G1 X152.56 Y105.313 E70.51314
G1 X152.679 Y105.845 E70.54408
G1 X152.679 Y200.845 E75.93534
G1 X152.617 Y201.234 E75.95769
G1 X152.454 Y201.608 E75.98085
G1 X152.061 Y202.03 E76.01357
G1 X151.897 Y202.132 E76.02453
G1 X151.294 Y202.31 E76.06021
G1 X129.214 Y202.31 E77.31325
G1 X128.825 Y202.248 E77.33561
G1 X128.633 Y202.174 E77.34729
G1 X128.274 Y201.949 E77.37133
G1 X128.112 Y201.793 E77.38409
G1 X127.868 Y201.377 E77.41146
G1 X127.749 Y200.845 E77.4424
G1 X127.749 Y105.845 E82.83366
G1 X127.811 Y105.456 E82.85601
G1 X127.885 Y105.264 E82.86769
G1 X128.11 Y104.905 E82.89173
G0 F6000 X128.573 Y105.195
G1 F4500 X128.819 Y105.028 E82.90861
G1 X129.214 Y104.926 E82.93176
G1 X151.214 Y104.926 E84.18026
G1 X151.505 Y104.979 E84.19705
G1 X151.864 Y105.204 E84.22109
G1 X152.031 Y105.45 E84.23797
G1 X152.133 Y105.845 E84.26112
G1 X152.133 Y200.845 E89.65238
G1 X152.08 Y201.136 E89.66916
G1 X151.966 Y201.363 E89.68358
G1 X151.693 Y201.626 E89.70509
G1 X151.214 Y201.764 E89.73338
G1 X129.214 Y201.764 E90.98188
G1 X128.923 Y201.711 E90.99867
G1 X128.564 Y201.486 E91.02271
G1 X128.397 Y201.24 E91.03959
G1 X128.295 Y200.845 E91.06274
G1 X128.295 Y105.845 E96.454
G1 X128.348 Y105.554 E96.47078
G1 X128.573 Y105.195 E96.49483
G0 F6000 X128.88 Y105.678
G1 F4500 X128.991 Y105.546 E96.50461
G1 X129.214 Y105.472 E96.51795
G1 X151.214 Y105.472 E97.76645
G1 X151.381 Y105.511 E97.77618
G1 X151.513 Y105.622 E97.78597
G1 X151.587 Y105.845 E97.7993
G1 X151.587 Y200.845 E103.19056
G1 X151.548 Y201.012 E103.2003
G1 X151.437 Y201.144 E103.21008
G1 X151.214 Y201.218 E103.22342
G1 X129.214 Y201.218 E104.47192
G1 X129.047 Y201.179 E104.48165
G1 X128.915 Y201.068 E104.49144
G1 X128.841 Y200.845 E104.50477
G1 X128.841 Y105.845 E109.89603
G1 X128.88 Y105.678 E109.90577
G1 F2700 E108.90577
G0 F6000 X128.549 Y105.678
G0 X151.867 Y105.192
G0 X159.164 Y147.153
G1 F2700 E109.90577
G1 F4500 X160.633 Y146.111 E110.00798
G1 X162.012 Y145.36 E110.09709
G1 X163.254 Y144.846 E110.17337
G1 X164.798 Y144.393 E110.26468
G1 X166.495 Y144.105 E110.36237
G1 X168.102 Y144.026 E110.45367
G1 X169.487 Y144.105 E110.5324
G1 X171.175 Y144.391 E110.62956
G1 X172.548 Y144.786 E110.71064
G1 X174.13 Y145.442 E110.80783
G1 X175.398 Y146.145 E110.89011
G1 X176.729 Y147.086 E110.98261
G1 X177.929 Y148.162 E111.07408
G1 X178.869 Y149.21 E111.15397
G1 X179.908 Y150.674 E111.25585
G1 X180.58 Y151.892 E111.3348
G1 X181.235 Y153.472 E111.43186
G1 X181.63 Y154.845 E111.51294
G1 X181.916 Y156.538 E111.61038
G1 X181.995 Y158.146 E111.70174
G1 X181.916 Y159.53 E111.78041
G1 X181.631 Y161.216 E111.87745
G1 X181.235 Y162.591 E111.95865
G1 X180.577 Y164.174 E112.05594
G1 X179.852 Y165.48 E112.14071
G1 X178.867 Y166.86 E112.23693
G1 X177.899 Y167.934 E112.31898
G1 X176.667 Y169.031 E112.4126
G1 X175.502 Y169.856 E112.49361
G1 X174.132 Y170.622 E112.58268
G1 X172.548 Y171.279 E112.68
G1 X171.174 Y171.675 E112.76115
G1 X169.669 Y171.939 E112.84786
G1 X167.934 Y172.04 E112.94649
G1 X166.487 Y171.96 E113.02873
G1 X164.802 Y171.675 E113.12572
G1 X163.428 Y171.279 E113.20687
G1 X161.844 Y170.622 E113.30418
G1 X160.474 Y169.856 E113.39326
G1 X159.309 Y169.031 E113.47427
G1 X158.003 Y167.858 E113.57389
G1 X157.106 Y166.855 E113.65025
G1 X156.068 Y165.391 E113.7521
G1 X155.396 Y164.173 E113.83104
G1 X154.74 Y162.591 E113.92824
G1 X154.345 Y161.216 E114.00942
G1 X154.061 Y159.525 E114.10673
G1 X153.981 Y157.92 E114.19793
G1 X154.061 Y156.535 E114.27666
G1 X154.345 Y154.849 E114.37369
G1 X154.741 Y153.474 E114.45489
G1 X155.4 Y151.889 E114.5523
G1 X156.19 Y150.479 E114.64403
G1 X157.068 Y149.256 E114.72946
G1 X158.075 Y148.133 E114.81506
G1 X159.164 Y147.153 E114.89821
G1 F2700 E113.89821
G0 F6000 X158.482 Y148.498
G1 F2700 E114.89821
G1 F4500 X159.529 Y147.559 E114.97802
G1 X160.895 Y146.59 E115.07306
G1 X162.221 Y145.865 E115.15883
G1 X163.463 Y145.351 E115.23511
G1 X164.951 Y144.917 E115.32307
G1 X166.523 Y144.65 E115.41356
G1 X168.071 Y144.571 E115.50152
G1 X169.456 Y144.65 E115.58025
G1 X171.024 Y144.916 E115.6705
G1 X172.397 Y145.311 E115.75158
G1 X173.865 Y145.92 E115.84178
G1 X175.133 Y146.623 E115.92405
G1 X176.364 Y147.493 E116.0096
G1 X177.564 Y148.569 E116.10107
G1 X178.462 Y149.574 E116.17755
G1 X179.43 Y150.938 E116.27247
G1 X180.102 Y152.156 E116.35142
G1 X180.71 Y153.623 E116.44154
G1 X181.105 Y154.996 E116.52261
G1 X181.371 Y156.566 E116.61298
G1 X181.45 Y158.115 E116.701
G1 X181.371 Y159.499 E116.77967
G1 X181.106 Y161.065 E116.86981
G1 X180.71 Y162.44 E116.95101
G1 X180.1 Y163.909 E117.04128
G1 X179.375 Y165.215 E117.12605
G1 X178.461 Y166.494 E117.21526
G1 X177.493 Y167.568 E117.29731
G1 X176.351 Y168.585 E117.38409
G1 X175.186 Y169.41 E117.46511
G1 X173.866 Y170.145 E117.55085
G1 X172.397 Y170.754 E117.64109
G1 X171.023 Y171.15 E117.72224
G1 X169.576 Y171.401 E117.80558
G1 X167.903 Y171.495 E117.90068
G1 X166.519 Y171.415 E117.97935
G1 X164.953 Y171.15 E118.06948
G1 X163.579 Y170.754 E118.15063
G1 X162.11 Y170.145 E118.24088
G1 X160.79 Y169.41 E118.32662
G1 X159.625 Y168.585 E118.40763
G1 X158.41 Y167.494 E118.5003
G1 X157.513 Y166.491 E118.57666
G1 X156.546 Y165.127 E118.67155
G1 X155.874 Y163.909 E118.75049
G1 X155.265 Y162.44 E118.84074
G1 X154.87 Y161.065 E118.92193
G1 X154.606 Y159.497 E119.01216
G1 X154.526 Y157.951 E119.10002
G1 X154.606 Y156.566 E119.17875
G1 X154.87 Y155 E119.26887
G1 X155.266 Y153.625 E119.35007
G1 X155.877 Y152.155 E119.44042
G1 X156.634 Y150.797 E119.52865
G1 X157.475 Y149.621 E119.61069
G1 X158.482 Y148.498 E119.6963
G0 F6000 X158.889 Y148.863
G1 F4500 X159.893 Y147.966 E119.7727
G1 X161.158 Y147.069 E119.86071
G1 X162.43 Y146.37 E119.94307
G1 X163.672 Y145.856 E120.01935
G1 X165.103 Y145.441 E120.10391
G1 X166.552 Y145.195 E120.18732
G1 X168.04 Y145.116 E120.27188
G1 X169.425 Y145.195 E120.35061
G1 X170.873 Y145.441 E120.43396
G1 X172.246 Y145.836 E120.51504
G1 X173.601 Y146.398 E120.59828
G1 X174.818 Y147.069 E120.67715
G1 X176.049 Y147.939 E120.7627
G1 X177.157 Y148.933 E120.84717
G1 X178.055 Y149.938 E120.92366
G1 X178.952 Y151.202 E121.01161
G1 X179.624 Y152.42 E121.09056
G1 X180.185 Y153.774 E121.17373
G1 X180.58 Y155.147 E121.25481
G1 X180.826 Y156.595 E121.33816
G1 X180.905 Y158.084 E121.42278
G1 X180.826 Y159.468 E121.50145
G1 X180.581 Y160.914 E121.58468
G1 X180.185 Y162.289 E121.66589
G1 X179.622 Y163.645 E121.74921
G1 X178.93 Y164.898 E121.83044
G1 X178.055 Y166.128 E121.9161
G1 X177.087 Y167.202 E121.99815
G1 X176.035 Y168.139 E122.0781
G1 X174.87 Y168.964 E122.15912
G1 X173.601 Y169.667 E122.24144
G1 X172.246 Y170.229 E122.32469
